src/main/webapp/data/gib.svg

<svg height="500" viewBox="0 0 512 256" width="1000" xmlns="http://www.w3.org/2000/svg" xmlns:xlink="http://www.w3.org/1999/xlink"><path d="m0 0h512v256h-512z" fill="#da000c"/><path d="m0 0h512v171.5h-512z" fill="#fff"/><g stroke="#000"><g id="a" fill="#da000c" stroke-linecap="square"><path d="m196.57106 116.30338h64v43.992859h-64z" fill="#000" stroke="none"/><path d="m229.81889 153.86465h-39.06889l-8.66011 5.69979v6.03967h47.729"/><path d="m213.46875 128.59375c5.62482 0 10.21875 4.68928 10.21875 10.46875v14.78125h7.34375v-56h-40.28125v56h12.5v-14.78125c-.00001-5.55372 4.51491-10.46875 10.21875-10.46875z"/><path d="m204.5282 59.961655h18.523308v33.9594h-18.523308z" fill="#000" stroke="none"/><path d="m223 88.65625h-16.20892v-5.75h-11.88483v5.75h-8.0625v-5.75h-4.8125v10.4375h40.96875m-36.15625-.037712h34.97039v4.537714h-34.97039z"/><path d="m200.71875 47.625v35.28125h6.07233v-9.6875c0-3.629302 2.56206-6.599364 6.14642-6.78125.11562-.005867.22668 0 .34375 0 3.74638-.000003 6.78125 3.034874 6.78125 6.78125v9.6875h5.78125v-35.28125z"/><path d="m198.53125 42.84375v4.78125h29.25v-4.78125z"/><path d="m194.78125 33.6875v9.15625h35.09375v-9.15625h-5.40625v4.65625h-6.53125v-4.65625h-9.96875v4.65625h-6.53125v-4.65625z"/><path d="m182.08989 159.56444h47.91011"/><path d="m261 156.8125h-32.4375l-9.78125 4.71875v7.03125h42.21875"/><path d="m218.771 161.51923h43.229" stroke-linecap="butt"/></g><use transform="matrix(-1 0 0 1 512 0)" xlink:href="#a"/><g fill="#f8d80e"><g stroke-linecap="round"><path d="m273.297 150.031c-2.65428.88339-5.05329 2.369-7.46888 3.75283-3.1004 1.83163-6.10683 3.82731-8.90451 6.09885-.98462.64912-1.92929 1.36065-2.68911 2.27332-1.02583.8776-2.06486 2.05478-1.86885 3.51297.0518.64315.87359-.75523 1.41401-.82297.94235-.54095 2.0838-.7154 3.14219-.4713 1.27117-1.33857 2.90994-2.23563 4.3249-3.40609 3.00467-2.24222 6.23664-4.16769 9.52502-5.96082 1.1481-.58838 2.30104-1.18568 3.52508-1.60184-.33328-1.12498-.66657-2.24997-.99985-3.37495z" stroke-width=".768"/><path d="m260.40041 157.3913v3.9119"/><path d="m262.81691 155.68544v3.88277"/><path d="m265.23339 154.17984v3.85813"/><path d="m267.64986 152.69367v3.98131"/><path d="m238.891 150.156c-.39583 1.10417-.79167 2.20833-1.1875 3.3125 5.53699 2.10036 10.8089 4.87874 15.7978 8.06036 1.69067 1.15075 3.46718 2.26632 4.79593 3.84589.2927.81098-.51392 1.48903-1.31413 1.24403-.73225-.24871-1.45351-.53169-2.22629-.004-1.10637.50311-2.10598 2.1416-.42575 2.69112 2.31528 1.55489 6.08158.87915 7.19454-1.84522.58146-1.40134.61878-3.19523-.50753-4.34456-2.06261-2.36404-4.79728-4.00804-7.4215-5.67182-4.68917-2.82023-9.57283-5.37389-14.7055-7.28801z" stroke-width=".768"/><path d="m254.04985 158.03521-.31238 3.33948"/><path d="m256.8319 159.73914-.86199 3.26968"/><path d="m259.80442 162.01152-1.8089 2.53732"/><path d="m260.71528 168.18078-2.61016-1.40046"/><path d="m261.52792 165.42898-2.99541.28045"/><path d="m257.66497 169.7646-.2051-2.63232"/><path d="m256.56809 166.75559-2.473 1.8222"/><path d="m244.67669 152.9368v3.11504"/><path d="m250.96338 156.24386v3.53419"/><path d="m247.82004 154.59318v3.31892"/></g><path d="m235.78125 227.5625v8.03125h5.03125v-4.03125h6.84375v4.03125h5.40625v-8.03125zm0 11.0625v8.0625h17.28125v-8.0625h-5.40625v4.03125h-6.84375v-4.03125z"/><path d="m253.05186 193.65144h4.990227v58.115017h-4.990227z"/><path d="m253.05186 198.6788h4.990227v50.060368h-4.990227z"/><g stroke-width="1.024"><path d="m255.54688 179.40625 10.625 6.1875-10.625 6.15625-10.625-6.15625zm-14.21875 3.96875h-2.78125v4.4375h2.78125l14.21875 8.25 14.21875-8.25h2.78125v-4.4375h-2.78125l-14.21875-8.25z"/><path d="m255.344 164.281c-2.41872.33922-4.22593 2.73018-4.09375 5.13412.009 3.73773-.0185 7.47634.0141 11.2135.12824 2.40829 2.23219 4.56615 4.6744 4.58823 1.98493.18804 3.97892-.97232 4.81154-2.77961-.57292-.34375-1.14583-.6875-1.71875-1.03125-.44378 1.18388-1.72345 1.91762-2.96875 1.78125-1.63507.046-2.95917-1.54398-2.8125-3.13412.01-3.71344-.0192-7.42801.0146-11.1407.0899-1.5151 1.53488-2.75487 3.04795-2.60016.6265-.17973 1.48748.67715 1.8747-.0623.5838-.82944-.41442-1.47737-.96875-1.9374-.61348-.0841-1.25418-.008-1.8747-.0316zm5.78125 3.90625c-.39638.7459-1.21626 1.18923-1.875 1.58041v7.51334c.66667.38542 1.33333.77083 2 1.15625-.008-3.20377.0153-6.40813-.0117-9.61152-.0315-.19722-.008-.4984-.11328-.63848z"/></g></g><g fill="#da000c"><path d="m240.80301 38.351128h29.328571v53.254513h-29.328571z" fill="#000" stroke="none"/><path d="m238.75 38.375v44.5625h9.3125v-13.21875c0-3.048928 1.95251-7.28125 7.9375-7.28125s7.9375 4.232322 7.9375 7.28125v13.21875h9.3125v-44.5625zm15.8125 5h2.875v15.25h-2.875zm-8.25 3h2.90625v11.15625h-2.90625zm16.46875 0h2.90625v11.15625h-2.90625z"/><path d="m235.59375 31.96875v6.34375h40.8125v-6.34375z"/><path d="m231.75 24.59375v7.375h48.5v-7.375h-6.09375v4.0625h-6.875v-4.0625h-7.84375v4.0625h-6.875v-4.0625h-7.84375v4.0625h-6.875v-4.0625z"/><path d="m222.75 97.84375v4.59375h66.5v-4.59375z"/><path d="m220.03125 82.90625v14.9375h71.9375v-14.9375h-6.8125v5.75h-9.0625v-5.75h-12.15625v5.75h-15.875v-5.75h-12.15625v5.75h-9.0625v-5.75z"/><path d="m228.6875 102.4375v54.34375h12.84375v-20.34375c0-9.58273 6.3963-14.09375 14.46875-14.09375 7.75894 0 14.46875 4.51102 14.46875 14.09375v20.34375h12.84375v-54.34375z" stroke-linejoin="round"/></g></g></svg>

<?xml version="1.0" encoding="UTF-8"?>
<svg xmlns="http://www.w3.org/2000/svg" xmlns:xlink="http://www.w3.org/1999/xlink" width="1000" height="500" viewBox="0 0 512 256">
<rect fill="#da000c" width="512" height="256"/>
<rect fill="#fff" width="512" height="171.5"/>
<g stroke="#000">
<g id="castle_half" fill="#da000c" stroke-linecap="square">
<rect fill="#000" stroke="none" width="64" height="43.992859" x="196.57106" y="116.30338"/>
<path d="M229.81889,153.86465H190.75L182.08989,159.56444V165.60411H229.81889"/>
<path d="M213.46875,128.59375C219.09357,128.59375 223.6875,133.28303 223.6875,139.0625V153.84375H231.03125V97.84375H190.75V153.84375H203.25V139.0625C203.24999,133.50878 207.76491,128.59375 213.46875,128.59375z"/>
<rect fill="#000" stroke="none" width="18.523308" height="33.9594" x="204.5282" y="59.961655"/>
<path d="M223,88.65625H206.79108V82.90625H194.90625V88.65625H186.84375V82.90625H182.03125V93.34375H223M186.84375,93.306038H221.81414V97.843752H186.84375z"/>
<path d="M200.71875,47.625V82.90625H206.79108V73.21875C206.79108,69.589448 209.35314,66.619386 212.9375,66.4375C213.05312,66.431633 213.16418,66.4375 213.28125,66.4375C217.02763,66.437497 220.0625,69.472374 220.0625,73.21875V82.90625H225.84375V47.625z"/>
<path d="M198.53125,42.84375V47.625H227.78125V42.84375z"/>
<path d="M194.78125,33.6875V42.84375H229.875V33.6875H224.46875V38.34375H217.9375V33.6875H207.96875V38.34375H201.4375V33.6875z"/>
<path d="M182.08989,159.56444H230"/>
<path d="M261,156.8125H228.5625L218.78125,161.53125V168.5625H261"/>
<path stroke-linecap="butt" d="M218.771,161.51923H262"/>
</g>
<use xlink:href="#castle_half" transform="matrix(-1,0,0,1,512,0)"/>
<g fill="#f8d80e">
<g stroke-linecap="round">
<path stroke-width="0.768" d="m273.297,150.031c-2.65428,0.88339-5.05329,2.369-7.46888,3.75283-3.1004,1.83163-6.10683,3.82731-8.90451,6.09885-0.98462,0.64912-1.92929,1.36065-2.68911,2.27332-1.02583,0.8776-2.06486,2.05478-1.86885,3.51297,0.0518,0.64315,0.87359-0.75523,1.41401-0.82297,0.94235-0.54095,2.0838-0.7154,3.14219-0.4713,1.27117-1.33857,2.90994-2.23563,4.3249-3.40609,3.00467-2.24222,6.23664-4.16769,9.52502-5.96082,1.1481-0.58838,2.30104-1.18568,3.52508-1.60184-0.33328-1.12498-0.66657-2.24997-0.99985-3.37495z"/>
<path d="M260.40041,157.3913V161.3032"/>
<path d="M262.81691,155.68544V159.56821"/>
<path d="M265.23339,154.17984V158.03797"/>
<path d="M267.64986,152.69367V156.67498"/>
<path stroke-width="0.768" d="m238.891,150.156c-0.39583,1.10417-0.79167,2.20833-1.1875,3.3125,5.53699,2.10036,10.8089,4.87874,15.7978,8.06036,1.69067,1.15075,3.46718,2.26632,4.79593,3.84589,0.2927,0.81098-0.51392,1.48903-1.31413,1.24403-0.73225-0.24871-1.45351-0.53169-2.22629-0.004-1.10637,0.50311-2.10598,2.1416-0.42575,2.69112,2.31528,1.55489,6.08158,0.87915,7.19454-1.84522,0.58146-1.40134,0.61878-3.19523-0.50753-4.34456-2.06261-2.36404-4.79728-4.00804-7.4215-5.67182-4.68917-2.82023-9.57283-5.37389-14.7055-7.28801z"/>
<path d="M254.04985,158.03521 253.73747,161.37469"/>
<path d="M256.8319,159.73914 255.96991,163.00882"/>
<path d="M259.80442,162.01152 257.99552,164.54884"/>
<path d="M260.71528,168.18078 258.10512,166.78032"/>
<path d="M261.52792,165.42898 258.53251,165.70943"/>
<path d="M257.66497,169.7646 257.45987,167.13228"/>
<path d="M256.56809,166.75559 254.09509,168.57779"/>
<path d="M244.67669,152.9368V156.05184"/>
<path d="M250.96338,156.24386V159.77805"/>
<path d="M247.82004,154.59318V157.9121"/>
</g>
<path d="M235.78125,227.5625V235.59375H240.8125V231.5625H247.65625V235.59375H253.0625V227.5625zM235.78125,238.625V246.6875H253.0625V238.625H247.65625V242.65625H240.8125V238.625z"/>
<rect width="4.9902272" height="58.115017" x="253.05186" y="193.65144"/>
<rect width="4.9902272" height="50.060368" x="253.05186" y="198.6788"/>
<path stroke-width="1.024" d="M255.54688,179.40625 266.17188,185.59375 255.54688,191.75 244.92188,185.59375zM241.32813,183.375H238.54688V187.8125H241.32813L255.54688,196.0625 269.76563,187.8125H272.54688V183.375H269.76563L255.54688,175.125z"/>
<path stroke-width="1.024" d="m255.344,164.281c-2.41872,0.33922-4.22593,2.73018-4.09375,5.13412,0.009,3.73773-0.0185,7.47634,0.0141,11.2135,0.12824,2.40829,2.23219,4.56615,4.6744,4.58823,1.98493,0.18804,3.97892-0.97232,4.81154-2.77961-0.57292-0.34375-1.14583-0.6875-1.71875-1.03125-0.44378,1.18388-1.72345,1.91762-2.96875,1.78125-1.63507,0.046-2.95917-1.54398-2.8125-3.13412,0.01-3.71344-0.0192-7.42801,0.0146-11.1407,0.0899-1.5151,1.53488-2.75487,3.04795-2.60016,0.6265-0.17973,1.48748,0.67715,1.8747-0.0623,0.5838-0.82944-0.41442-1.47737-0.96875-1.9374-0.61348-0.0841-1.25418-0.008-1.8747-0.0316zm5.78125,3.90625c-0.39638,0.7459-1.21626,1.18923-1.875,1.58041v7.51334c0.66667,0.38542,1.33333,0.77083,2,1.15625-0.008-3.20377,0.0153-6.40813-0.0117-9.61152-0.0315-0.19722-0.008-0.4984-0.11328-0.63848z"/>
</g>
<g fill="#da000c">
<rect fill="#000" stroke="none" width="29.328571" height="53.254513" x="240.80301" y="38.351128"/>
<path d="M238.75,38.375V82.9375H248.0625V69.71875C248.0625,66.669822 250.01501,62.4375 256,62.4375C261.98499,62.4375 263.9375,66.669822 263.9375,69.71875V82.9375H273.25V38.375zM254.5625,43.375H257.4375V58.625H254.5625zM246.3125,46.375H249.21875V57.53125H246.3125zM262.78125,46.375H265.6875V57.53125H262.78125z"/>
<path d="M235.59375,31.96875V38.3125H276.40625V31.96875z"/>
<path d="M231.75,24.59375V31.96875H280.25V24.59375H274.15625V28.65625H267.28125V24.59375H259.4375V28.65625H252.5625V24.59375H244.71875V28.65625H237.84375V24.59375z"/>
<path d="M222.75,97.84375V102.4375H289.25V97.84375z"/>
<path d="M220.03125,82.90625V97.84375H291.96875V82.90625H285.15625V88.65625H276.09375V82.90625H263.9375V88.65625H248.0625V82.90625H235.90625V88.65625H226.84375V82.90625z"/>
<path stroke-linejoin="round" d="M228.6875,102.4375V156.78125H241.53125V136.4375C241.53125,126.85477 247.92755,122.34375 256,122.34375C263.75894,122.34375 270.46875,126.85477 270.46875,136.4375V156.78125H283.3125V102.4375z"/>
</g>
</g>
</svg>
